client/src/assets/public/images/icons/graduation.svg

<?xml version="1.0" encoding="UTF-8"?>
<svg width="90px" height="62px" viewBox="0 0 90 62" version="1.1" xmlns="http://www.w3.org/2000/svg" xmlns:xlink="http://www.w3.org/1999/xlink">
    <!-- Generator: Sketch 52.6 (67491) - http://www.bohemiancoding.com/sketch -->
    <title>graduation</title>
    <desc>Created with Sketch.</desc>
    <g id="Page-1" stroke="none" stroke-width="1" fill="none" fill-rule="evenodd">
        <g id="graduation" fill="#484848">
            <path d="M73.05493,52.1734 L73.05493,31.55505 L47.47,42.59686 C45.8875708,43.2443138 44.1142113,43.2446729 42.53152,42.59786 L16.94287,31.55414 L16.94287,52.1734 C16.94287,64.95386 73.05493,64.95386 73.05493,52.1734 Z" id="Path"></path>
            <path d="M89.63391,19.28021 L45.88491,0.39935 C45.3140827,0.188552258 44.6867373,0.188552258 44.11591,0.39935 L0.36658,19.28021 C-0.12195,19.49103 -0.12195,19.83282 0.36658,20.04364 L44.11584,38.9245 C44.6866823,39.1353101 45.3140477,39.1353101 45.88489,38.9245 L89.63389,20.04364 C90.12244,19.83282 90.12244,19.491 89.63391,19.28021 Z" id="Path"></path>
            <path d="M83.14392,27.20581 L83.14392,48.1413 L80.51453,56.26624 C80.349914,56.7757385 80.2722487,57.3093152 80.28479,57.8446 C80.317936,58.6023961 80.9462345,59.1972778 81.70471,59.189 L88.57922,59.189 C89.3377056,59.1972792 89.9659838,58.602331 89.99902,57.84452 C90.0115192,57.3092686 89.9338166,56.7757324 89.76917,56.26628 L87.14392,48.15373 L87.14392,25.47583 L83.14392,27.20581 Z" id="Path"></path>
        </g>
    </g>
</svg>

<svg xmlns="http://www.w3.org/2000/svg" width="90" height="62" fill="#484848" fill-rule="evenodd"><path d="M73.055 52.173V31.555L47.47 42.597c-1.582.647-3.356.648-4.938.001l-25.6-11.044v20.62c0 12.78 56.112 12.78 56.112 0zm16.58-32.893L45.885.4c-.57-.2-1.198-.2-1.77 0L.367 19.28c-.5.2-.5.553 0 .763l43.75 18.88c.57.2 1.198.2 1.77 0l43.75-18.88c.5-.2.5-.553 0-.763zm-6.5 7.926V48.14l-2.63 8.125a4.77 4.77 0 0 0-.23 1.578c.033.758.66 1.353 1.42 1.344h6.875c.758.008 1.387-.587 1.42-1.344a4.77 4.77 0 0 0-.23-1.578l-2.625-8.113V25.476l-4 1.73z"/></svg>
